material/.icons/material/format-list-checks.svg

<svg xmlns="http://www.w3.org/2000/svg" viewBox="0 0 24 24"><path d="M3 5h6v6H3V5m2 2v2h2V7H5m6 0h10v2H11V7m0 8h10v2H11v-2m-6 5l-3.5-3.5 1.41-1.41L5 17.17l4.59-4.58L11 14l-6 6z"/></svg>

<?xml version="1.0" encoding="UTF-8"?><!DOCTYPE svg PUBLIC "-//W3C//DTD SVG 1.1//EN" "http://www.w3.org/Graphics/SVG/1.1/DTD/svg11.dtd"><svg xmlns="http://www.w3.org/2000/svg" xmlns:xlink="http://www.w3.org/1999/xlink" version="1.1" id="mdi-format-list-checks" width="24" height="24" viewBox="0 0 24 24"><path d="M3,5H9V11H3V5M5,7V9H7V7H5M11,7H21V9H11V7M11,15H21V17H11V15M5,20L1.5,16.5L2.91,15.09L5,17.17L9.59,12.59L11,14L5,20Z" /></svg>
